utils/icons-generator/ic_status_playing.svg

<?xml version="1.0" encoding="UTF-8"?>
<svg xmlns="http://www.w3.org/2000/svg" xmlns:xlink="http://www.w3.org/1999/xlink" width="1000pt" height="1000pt" viewBox="0 0 1000 1000" version="1.1">
<g id="surface1">
<path style=" stroke:none;fill-rule:nonzero;fill:rgb(0%,0%,0%);fill-opacity:1;" d="M 958.460938 682.980469 C 939.421875 548.363281 837.882812 450.671875 716.921875 450.671875 C 703.078125 450.671875 692.308594 460.480469 680.769531 470.671875 C 671.730469 478.941406 660.386719 489.132812 652.5 489.132812 L 529.179688 489.132812 C 559.117188 404.089844 529.527344 307.621094 453.359375 254.851562 L 450.335938 252.769531 C 423.875 234.429688 412.382812 200.25 422.46875 169.347656 C 438.429688 120.480469 419.164062 67.25 375.628906 39.90625 L 355.160156 72.46875 C 383.742188 90.414062 396.382812 125.34375 385.828125 157.703125 C 370.578125 204.34375 388.117188 256.429688 428.457031 284.394531 L 431.480469 286.476562 C 497.035156 331.90625 520.078125 417.316406 487.847656 489.132812 L 347.5 489.132812 C 339.613281 489.132812 328.460938 478.941406 319.421875 470.863281 C 307.882812 460.480469 297.117188 450.671875 283.078125 450.671875 C 162.113281 450.671875 60.578125 548.363281 41.539062 682.980469 C 30.769531 759.902344 48.65625 834.710938 90.578125 888.171875 C 122.691406 929.132812 166.730469 954.324219 215 959.132812 C 290.960938 966.632812 365.382812 924.902344 413.269531 849.902344 L 586.730469 849.902344 C 630.960938 919.132812 697.691406 960.09375 767.308594 960.09375 C 773.269531 960.09375 779.230469 959.710938 785 959.132812 C 833.269531 954.324219 877.308594 929.132812 909.421875 888.171875 C 951.347656 834.710938 969.230469 759.902344 958.460938 682.980469 Z M 365.394531 724.570312 L 288.472656 724.570312 L 288.472656 801.652344 L 250.011719 801.652344 L 250.011719 724.570312 L 173.085938 724.570312 L 173.085938 686.109375 L 250.011719 686.109375 L 250.011719 609.015625 L 288.472656 609.015625 L 288.472656 686.109375 L 365.394531 686.109375 Z M 634.625 724.570312 L 576.933594 724.570312 L 576.933594 686.109375 L 634.625 686.109375 Z M 730.78125 840.179688 L 692.316406 840.179688 L 692.316406 782.382812 L 730.78125 782.382812 Z M 730.78125 628.285156 L 692.316406 628.285156 L 692.316406 570.488281 L 730.78125 570.488281 Z M 846.164062 724.570312 L 788.472656 724.570312 L 788.472656 686.109375 L 846.164062 686.109375 Z M 846.164062 724.570312 "/>
</g>
</svg>

<?xml version="1.0" encoding="UTF-8" standalone="no"?>
<svg
   xmlns:dc="http://purl.org/dc/elements/1.1/"
   xmlns:cc="http://creativecommons.org/ns#"
   xmlns:rdf="http://www.w3.org/1999/02/22-rdf-syntax-ns#"
   xmlns:svg="http://www.w3.org/2000/svg"
   xmlns="http://www.w3.org/2000/svg"
   xmlns:sodipodi="http://sodipodi.sourceforge.net/DTD/sodipodi-0.dtd"
   xmlns:inkscape="http://www.inkscape.org/namespaces/inkscape"
   width="1000pt"
   height="1000pt"
   viewBox="0 0 1000 1000"
   version="1.1"
   id="svg1473"
   sodipodi:docname="ic_status_playing.svg"
   inkscape:version="0.92.4 (5da689c313, 2019-01-14)">
  <metadata
     id="metadata1479">
    <rdf:RDF>
      <cc:Work
         rdf:about="">
        <dc:format>image/svg+xml</dc:format>
        <dc:type
           rdf:resource="http://purl.org/dc/dcmitype/StillImage" />
      </cc:Work>
    </rdf:RDF>
  </metadata>
  <defs
     id="defs1477" />
  <sodipodi:namedview
     pagecolor="#ffffff"
     bordercolor="#666666"
     borderopacity="1"
     objecttolerance="10"
     gridtolerance="10"
     guidetolerance="10"
     inkscape:pageopacity="0"
     inkscape:pageshadow="2"
     inkscape:window-width="2560"
     inkscape:window-height="1346"
     id="namedview1475"
     showgrid="false"
     inkscape:zoom="0.177"
     inkscape:cx="666.66667"
     inkscape:cy="666.66667"
     inkscape:window-x="-11"
     inkscape:window-y="-11"
     inkscape:window-maximized="1"
     inkscape:current-layer="svg1473" />
  <g
     id="surface1"
     transform="matrix(1.0806494,0,0,1.0806494,-40.324903,-40.324715)">
    <path
       style="fill:#000000;fill-opacity:1;fill-rule:nonzero;stroke:none"
       d="M 958.46094,682.98047 C 939.42187,548.36328 837.88281,450.67187 716.92187,450.67187 c -13.84375,0 -24.61328,9.8086 -36.15234,20 -9.03906,8.26954 -20.38281,18.46094 -28.26953,18.46094 H 529.17969 c 29.9375,-85.04297 0.34765,-181.51172 -75.82032,-234.28125 l -3.02343,-2.08203 C 423.875,234.42969 412.38281,200.25 422.46875,169.34766 438.42969,120.48047 419.16406,67.25 375.62891,39.90625 l -20.46875,32.5625 c 28.58203,17.945312 41.22265,52.875 30.66796,85.23437 -15.25,46.64063 2.28907,98.72657 42.62891,126.69141 l 3.02344,2.08203 c 65.55469,45.42969 88.59765,130.83985 56.36719,202.65625 H 347.5 c -7.88672,0 -19.03906,-10.1914 -28.07813,-18.26953 -11.53906,-10.38281 -22.30468,-20.19141 -36.34375,-20.19141 -120.96484,0 -222.499995,97.69141 -241.539058,232.3086 -10.769531,76.92187 7.117188,151.73047 49.039063,205.1914 32.113285,40.96094 76.152345,66.15235 124.421875,70.96094 75.96094,7.5 150.38281,-34.23047 198.26953,-109.23047 h 173.46094 c 44.23047,69.23047 110.96094,110.19141 180.57812,110.19141 5.96094,0 11.92188,-0.38281 17.69141,-0.96094 48.26953,-4.80859 92.30859,-30 124.42187,-70.96094 41.92579,-53.46093 59.8086,-128.26953 49.03907,-205.1914 z m -593.06641,41.58984 h -76.92187 v 77.08203 h -38.46094 v -77.08203 h -76.92578 v -38.46094 h 76.92578 v -77.09375 h 38.46094 v 77.09375 h 76.92187 z m 269.23047,0 H 576.93359 V 686.10937 H 634.625 Z m 96.15625,115.60938 h -38.46484 v -57.79688 h 38.46484 z m 0,-211.89453 h -38.46484 v -57.79688 h 38.46484 z m 115.38281,96.28515 h -57.6914 v -38.46094 h 57.6914 z m 0,0"
       id="path1470"
       inkscape:connector-curvature="0" />
  </g>
</svg>
